X: 9973
T: Devil's Delight, The
R: reel
M: 4/4
K: Amajor
fg|:aA ~A2 A2 EC|~A,2 EA, CEA,C|DCB,A, CEAc|dFBA GBeg|
aA ~A2 A2 EC|~A,2 EA, CEAc|dcBA cdeg|1 fdec A2 fg:|2 fdec ~A3 d||
ceAf eAce|feca eAce|dfBb fBdB|GABc defg|
aA ~A2 cAEC|DCB,A, CEAc|dcBA cdeg|1 fdec A2 fg:|2 fdec ~A3 d||

